images/icons/dry_products_icon.svg

<svg enable-background="new 0 0 122.88 115.76" viewBox="0 0 122.88 115.76" xmlns="http://www.w3.org/2000/svg"><path clip-rule="evenodd" d="m63.21 28.21c6.58.51 9.65-.9 11.18-11.13-6.03 1.6-12.35 1.89-11.18 11.13zm-31.95 62.45c7.13-2.06 9.82-4.76 7.4-16.14-5.73 4.07-12.29 6.87-7.4 16.14zm-4.51-12.05c7.13-2.06 9.82-4.76 7.4-16.14-5.73 4.07-12.28 6.86-7.4 16.14zm-4.43-11.81c6.34-1.83 8.73-4.23 6.58-14.35-5.1 3.62-10.93 6.1-6.58 14.35zm-3.95-10.5c5.63-1.62 7.75-3.76 5.84-12.74-4.52 3.22-9.69 5.42-5.84 12.74zm-3.49-9.32c5.24-1.51 7.22-3.5 5.44-11.87-4.21 3-9.03 5.05-5.44 11.87zm-4.57-6.91c-6.04-1.48-8.43-5.79-5.38-14.29 3.27 1.51 10.88 6.56 5.38 14.29zm17.88 51.74c-6.73 3.13-10.53 2.85-16.18-7.33 7-.68 13.78-2.88 16.18 7.33zm-4.51-12.05c-6.73 3.13-10.53 2.85-16.18-7.33 7-.68 13.78-2.88 16.18 7.33zm-4.4-11.83c-5.99 2.78-9.36 2.54-14.38-6.51 6.22-.61 12.25-2.56 14.38 6.51zm-3.91-10.5c-5.31 2.47-8.31 2.25-12.77-5.78 5.52-.55 10.88-2.28 12.77 5.78zm-3.48-9.33c-4.95 2.3-7.74 2.09-11.89-5.39 5.14-.5 10.13-2.11 11.89 5.39zm79.73 42.87c-7.13-2.06-9.82-4.76-7.4-16.14 5.73 4.07 12.29 6.86 7.4 16.14zm4.51-12.05c-7.13-2.06-9.82-4.76-7.4-16.14 5.73 4.07 12.28 6.86 7.4 16.14zm4.43-11.81c-6.34-1.83-8.73-4.23-6.58-14.35 5.1 3.62 10.93 6.1 6.58 14.35zm3.95-10.5c-5.63-1.62-7.75-3.76-5.84-12.74 4.52 3.21 9.69 5.42 5.84 12.74zm3.49-9.32c-5.24-1.51-7.22-3.5-5.44-11.87 4.21 3 9.03 5.05 5.44 11.87zm4.57-6.91c6.04-1.48 8.43-5.79 5.38-14.29-3.27 1.5-10.88 6.56-5.38 14.29zm-17.88 51.73c6.73 3.13 10.53 2.85 16.18-7.33-7-.68-13.78-2.87-16.18 7.33zm4.51-12.05c6.73 3.13 10.53 2.85 16.18-7.33-7-.68-13.78-2.87-16.18 7.33zm4.4-11.82c5.99 2.78 9.36 2.54 14.38-6.51-6.22-.61-12.25-2.56-14.38 6.51zm3.91-10.51c5.31 2.47 8.31 2.25 12.77-5.78-5.52-.54-10.88-2.27-12.77 5.78zm3.48-9.33c4.95 2.3 7.74 2.1 11.89-5.38-5.14-.5-10.13-2.12-11.89 5.38zm-51.57 41.08c0-1.06.86-1.91 1.91-1.91 1.06 0 1.91.86 1.91 1.91v23.38c0 1.06-.86 1.91-1.91 1.91-1.06 0-1.91-.86-1.91-1.91zm-29.12 7.81c-.4-.98.08-2.09 1.05-2.49.98-.4 2.09.08 2.49 1.05.77 1.9 1.64 3.74 2.51 5.58 1.74 3.69 3.5 7.41 4.52 11.55.25 1.02-.38 2.06-1.41 2.3-1.02.25-2.06-.38-2.3-1.41-.92-3.74-2.6-7.29-4.26-10.82-.91-1.91-1.81-3.83-2.6-5.76zm58.43-1.43c.4-.98 1.51-1.45 2.49-1.05s1.45 1.51 1.05 2.49c-.78 1.93-1.69 3.85-2.6 5.78-1.72 3.64-3.45 7.31-4.35 11.2-.24 1.03-1.26 1.67-2.29 1.44-1.03-.24-1.67-1.26-1.44-2.29.99-4.3 2.81-8.16 4.62-11.98.88-1.86 1.75-3.7 2.52-5.59zm-29.42-11.26c-8.95.69-13.13-1.23-15.21-15.14 8.21 2.18 16.81 2.57 15.21 15.14zm0-15.56c-8.95.69-13.13-1.23-15.21-15.14 8.21 2.19 16.81 2.58 15.21 15.14zm.02-15.24c-7.96.62-11.68-1.09-13.53-13.46 7.3 1.94 14.95 2.28 13.53 13.46zm.02-13.56c-7.06.55-10.36-.97-12.01-11.95 6.48 1.73 13.27 2.03 12.01 11.95zm.01-12.03c-6.58.51-9.65-.9-11.18-11.13 6.03 1.6 12.36 1.89 11.18 11.13zm2.24-9.76c6.21-4.23 7.09-10.13.04-18.45-3.06 3.08-9.54 12.03-.04 18.45zm1.67 66.15c8.95.69 13.13-1.23 15.21-15.14-8.21 2.18-16.82 2.57-15.21 15.14zm0-15.56c8.95.69 13.13-1.23 15.21-15.14-8.21 2.19-16.82 2.58-15.21 15.14zm-.03-15.24c7.96.62 11.68-1.09 13.53-13.46-7.3 1.94-14.95 2.28-13.53 13.46zm-.02-13.56c7.06.55 10.36-.97 12.01-11.95-6.48 1.73-13.27 2.03-12.01 11.95z" fill-rule="evenodd"/></svg>

<?xml version="1.0" encoding="utf-8"?><svg version="1.1" id="Layer_1" xmlns="http://www.w3.org/2000/svg" xmlns:xlink="http://www.w3.org/1999/xlink" x="0px" y="0px" viewBox="0 0 122.88 115.76" style="enable-background:new 0 0 122.88 115.76" xml:space="preserve"><style type="text/css">.st0{fill-rule:evenodd;clip-rule:evenodd;}</style><g><path class="st0" d="M63.21,28.21c6.58,0.51,9.65-0.9,11.18-11.13C68.36,18.68,62.04,18.97,63.21,28.21L63.21,28.21z M31.26,90.66 c7.13-2.06,9.82-4.76,7.4-16.14C32.93,78.59,26.37,81.39,31.26,90.66L31.26,90.66z M26.75,78.61c7.13-2.06,9.82-4.76,7.4-16.14 C28.42,66.54,21.87,69.33,26.75,78.61L26.75,78.61z M22.32,66.8c6.34-1.83,8.73-4.23,6.58-14.35C23.8,56.07,17.97,58.55,22.32,66.8 L22.32,66.8z M18.37,56.3c5.63-1.62,7.75-3.76,5.84-12.74C19.69,46.78,14.52,48.98,18.37,56.3L18.37,56.3z M14.88,46.98 c5.24-1.51,7.22-3.5,5.44-11.87C16.11,38.11,11.29,40.16,14.88,46.98L14.88,46.98z M10.31,40.07c-6.04-1.48-8.43-5.79-5.38-14.29 C8.2,27.29,15.81,32.34,10.31,40.07L10.31,40.07z M28.19,91.81c-6.73,3.13-10.53,2.85-16.18-7.33 C19.01,83.8,25.79,81.6,28.19,91.81L28.19,91.81z M23.68,79.76c-6.73,3.13-10.53,2.85-16.18-7.33 C14.5,71.75,21.28,69.55,23.68,79.76L23.68,79.76z M19.28,67.93c-5.99,2.78-9.36,2.54-14.38-6.51 C11.12,60.81,17.15,58.86,19.28,67.93L19.28,67.93z M15.37,57.43c-5.31,2.47-8.31,2.25-12.77-5.78 C8.12,51.1,13.48,49.37,15.37,57.43L15.37,57.43z M11.89,48.1C6.94,50.4,4.15,50.19,0,42.71C5.14,42.21,10.13,40.6,11.89,48.1 L11.89,48.1z M91.62,90.97c-7.13-2.06-9.82-4.76-7.4-16.14C89.95,78.9,96.51,81.69,91.62,90.97L91.62,90.97z M96.13,78.92 c-7.13-2.06-9.82-4.76-7.4-16.14C94.46,66.85,101.01,69.64,96.13,78.92L96.13,78.92z M100.56,67.11 c-6.34-1.83-8.73-4.23-6.58-14.35C99.08,56.38,104.91,58.86,100.56,67.11L100.56,67.11z M104.51,56.61 c-5.63-1.62-7.75-3.76-5.84-12.74C103.19,47.08,108.36,49.29,104.51,56.61L104.51,56.61z M108,47.29 c-5.24-1.51-7.22-3.5-5.44-11.87C106.77,38.42,111.59,40.47,108,47.29L108,47.29z M112.57,40.38c6.04-1.48,8.43-5.79,5.38-14.29 C114.68,27.59,107.07,32.65,112.57,40.38L112.57,40.38z M94.69,92.11c6.73,3.13,10.53,2.85,16.18-7.33 C103.87,84.1,97.09,81.91,94.69,92.11L94.69,92.11z M99.2,80.06c6.73,3.13,10.53,2.85,16.18-7.33 C108.38,72.05,101.6,69.86,99.2,80.06L99.2,80.06z M103.6,68.24c5.99,2.78,9.36,2.54,14.38-6.51 C111.76,61.12,105.73,59.17,103.6,68.24L103.6,68.24z M107.51,57.73c5.31,2.47,8.31,2.25,12.77-5.78 C114.76,51.41,109.4,49.68,107.51,57.73L107.51,57.73z M110.99,48.4c4.95,2.3,7.74,2.1,11.89-5.38 C117.74,42.52,112.75,40.9,110.99,48.4L110.99,48.4z M59.42,89.48c0-1.06,0.86-1.91,1.91-1.91c1.06,0,1.91,0.86,1.91,1.91v23.38 c0,1.06-0.86,1.91-1.91,1.91c-1.06,0-1.91-0.86-1.91-1.91V89.48L59.42,89.48z M30.3,97.29c-0.4-0.98,0.08-2.09,1.05-2.49 c0.98-0.4,2.09,0.08,2.49,1.05c0.77,1.9,1.64,3.74,2.51,5.58c1.74,3.69,3.5,7.41,4.52,11.55c0.25,1.02-0.38,2.06-1.41,2.3 c-1.02,0.25-2.06-0.38-2.3-1.41c-0.92-3.74-2.6-7.29-4.26-10.82C31.99,101.14,31.09,99.22,30.3,97.29L30.3,97.29z M88.73,95.86 c0.4-0.98,1.51-1.45,2.49-1.05c0.98,0.4,1.45,1.51,1.05,2.49c-0.78,1.93-1.69,3.85-2.6,5.78c-1.72,3.64-3.45,7.31-4.35,11.2 c-0.24,1.03-1.26,1.67-2.29,1.44c-1.03-0.24-1.67-1.26-1.44-2.29c0.99-4.3,2.81-8.16,4.62-11.98 C87.09,99.59,87.96,97.75,88.73,95.86L88.73,95.86z M59.31,84.6c-8.95,0.69-13.13-1.23-15.21-15.14 C52.31,71.64,60.91,72.03,59.31,84.6L59.31,84.6z M59.31,69.04c-8.95,0.69-13.13-1.23-15.21-15.14 C52.31,56.09,60.91,56.48,59.31,69.04L59.31,69.04z M59.33,53.8c-7.96,0.62-11.68-1.09-13.53-13.46 C53.1,42.28,60.75,42.62,59.33,53.8L59.33,53.8z M59.35,40.24c-7.06,0.55-10.36-0.97-12.01-11.95 C53.82,30.02,60.61,30.32,59.35,40.24L59.35,40.24z M59.36,28.21c-6.58,0.51-9.65-0.9-11.18-11.13 C54.21,18.68,60.54,18.97,59.36,28.21L59.36,28.21z M61.6,18.45C67.81,14.22,68.69,8.32,61.64,0C58.58,3.08,52.1,12.03,61.6,18.45 L61.6,18.45z M63.27,84.6c8.95,0.69,13.13-1.23,15.21-15.14C70.27,71.64,61.66,72.03,63.27,84.6L63.27,84.6z M63.27,69.04 c8.95,0.69,13.13-1.23,15.21-15.14C70.27,56.09,61.66,56.48,63.27,69.04L63.27,69.04z M63.24,53.8 c7.96,0.62,11.68-1.09,13.53-13.46C69.47,42.28,61.82,42.62,63.24,53.8L63.24,53.8z M63.22,40.24c7.06,0.55,10.36-0.97,12.01-11.95 C68.75,30.02,61.96,30.32,63.22,40.24L63.22,40.24z"/></g></svg>
